X: 1
T: Ana Lugojana
O: Romania
%info: cpl
M: 2/4
L: 1/8
Z: John Chambers <jc@trillian.mit.edu> from handwritten Mandala MS.
K: G
|: "G"bz zc' | "D7"az zb | "G"gf ef | g2 d2 \
| "G"bb c'b | "D7"ag ag | "Em"fe "B7"BB | "Em"e2 z2 :|
|:"Em"e3 f | gb ag | "D7"gf ef | "G"g2 d2 \
| "Em"e3 f | gb ag | fe "B7"BB | "Em"e2 z2 :|
[| "C"Ee ed | ed cB | "D7"dz B2 | "G"cB AG \
| "C"Ge ed | ed cB | "D7"dz B2 | "G"cB AG |]
|: "Em"GA BG | AG FE | ez B2 | cB AG \
| GA BG | AG FE | FE "B7"B,B, | "Em"E2 "fine"z2 :|
|: "G"DG DG | BG d2 | "D7"cB Ac | "G"Bc/B/ AG \
| "G"DG DG | BG d2 | "D7"cB AB | "G"G2 z2 :|
